X:1
T:Title
%%score { ( 1 3 4 ) | ( 2 5 ) }
L:1/8
Q:1/4=100
M:6/8
K:F
V:1 treble nm="Grand Piano"
V:3 treble 
V:4 treble 
V:2 bass 
V:5 bass 
V:1
 A_A=A cdc | A3 F3 | CDF DEF | E6 | [GB][^FA][GB] [Bd][ce][Bd] | [GB]3 [EG]3 | %6
w: Grant~C.~Tullar * * * * *||||||
 [EG][EG][_E^F] [=EG]2 [E_A] | A6 | A_A=A cdc | A3 F3 | [^FA][F_A][F=A] [Fd]2 [FA] | B6 | .f6 | %13
w: |||||||
 .f6 | [Ec]3 [CE]3 | [A,CF]6 | [A,CFA]3 [CFAc]3 | [DFAd]3 [CFAc]3 | FEF B2 A | D6 | %20
w: |||||||
 [B,DGB]3 [DGBd]3 | [EGBe]3 [DGBd]3 | [B,EG][B,EG][A,E^F] [B,EG]2 [CE_A] | A6 | [A,CFA]3 [CFAc]3 | %25
w: |||||
 [DFAd]3 [CFAc]3 | [FA][F_A][F=A] [Fd]2 [FA] | [GB]6 | .f6 | .f6 | [Ec]3 [CE]3 | %31
w: ||||||
[M:7/4] [A,CF]6 z2 z2 z4 |] %32
w: |
V:2
 [F,CF][F,=B,F][F,CF] [F,A,F][F,_B,F][F,A,F] | [F,CF]3 [F,A,C]3 | %2
 [F,A,][F,A,C][F,A,C] [F,A,C][F,A,C][F,A,C] | [G,B,C]6 | [C,C][C,C][C,C] [C,C][C,C][C,C] | %5
 [C,C]3 [C,C]3 | [C,B,][C,B,][C,A,] [C,B,]2 [C,C] | [F,CF]6 | %8
 [F,CF][F,=B,F][F,CF] [F,A,F][F,_B,F][F,A,F] | [F,CF]3 [F,A,C]3 | [D,C][D,C][D,C] [D,A,]2 [D,D] | %11
 [G,DG]6 | [=B,DF_A][B,DF][B,DF] .[B,DF]3 | [CFA][CF][CF] .[CF]3 | [C,G,]C,C, C,2 C, | %15
 F,C,A,, .F,,3 | [F,,C,F,]2 [F,,C,] [F,,C,F,]2 [F,,C,] | [F,,D,F,]2 [F,,D,] [F,,C,F,]2 [F,,C,] | %18
 DD[D,A,D] [D,G,D]2 [D,^F,C] | [B,,G,B,]2 [B,,G,] [A,,^F,A,]2 [A,,F,A,] | %20
 [G,,D,G,]2 [G,,D,] [G,,D,G,]2 [G,,D,] | [G,,C,G,]2 [G,,C,] [G,,D,G,]2 G,, | C,C,C, C,2 C, | %23
 z EF, .F,3 | [F,,C,F,]2 [F,,C,] [F,,C,F,]2 [F,,C,] | [F,,C,F,]2 [F,,D,] [F,,C,F,]2 [F,,C,] | %26
 [D,C]2 [D,C] [D,A,]2 [D,D] | [G,D]2 G, .G,3 | [=B,DF_A][B,DF][B,DF] .[B,DF]3 | %29
 [CFA][CF][CF] .[CF]3 | [C,G,]C,C, C,2 C, |[M:7/4] F,C,A,, .F,,3 z2 z2 z4 |] %32
V:3
 x6 | x6 | x6 | x6 | x6 | x6 | x6 | x6 | x6 | x6 | x6 | x6 | z _AA z ed | z AA z ed | %14
 z G,G, B,2 B, | x6 | z2 F, z2 F, | z2 F, z2 F, | x6 | z2 B, C2 C | z2 G, z2 G, | z2 G, z2 [D,G,] | %22
 x6 | .[CF]2 [CD] .[A,C]3 | z2 F, z2 F, | z2 F, z2 F, | x6 | z2 D .D3 | z _AA z ed | z AA z ed | %30
 z G,G, B,2 B, |[M:7/4] x14 |] %32
V:4
 x6 | x6 | x6 | x6 | x6 | x6 | x6 | x6 | x6 | x6 | x6 | x6 | z3 ._A3 | z3 .A3 | x6 | x6 | x6 | x6 | %18
 x6 | x6 | x6 | x6 | x6 | x6 | x6 | x6 | x6 | x6 | z3 ._A3 | z3 .A3 | x6 |[M:7/4] x14 |] %32
V:5
 x6 | x6 | x6 | x6 | x6 | x6 | x6 | x6 | x6 | x6 | x6 | x6 | x6 | x6 | x6 | x6 | x6 | x6 | %18
 .[D,A,]3 z3 | x6 | x6 | x6 | x6 | .F,3 z3 | x6 | x6 | x6 | x6 | x6 | x6 | x6 |[M:7/4] x14 |] %32

